T: We Won't Go Home Till Morning
M: 2/4
L: 1/8
K: Dmaj
D>E FG | Ad A>A | BG G>B | cA A2 |D>E FG | Ad A/B/A/G/ | FA GE | D2 D- :|dA AB/c/ | dA A>A | BG G>B | cA A2 |dA AB/c/ | dA A/B/A/G/ | FA GE | D2 D- :|
